packages/core/src/svgs/tokens/mono/BNT.svg

<svg width="24" height="24" viewBox="0 0 24 24" fill="none" xmlns="http://www.w3.org/2000/svg">
<path d="M11.4499 2L6.79747 4.72764L11.4505 7.45529L16.1855 4.72764L11.4499 2ZM12.2865 16.5442V22L18.59 18.3974V12.9415L12.2865 16.5442ZM16.8709 6.43586V11.8911L12.2865 14.6193V9.16408L16.8709 6.43586ZM5.41016 11.8911L10.5675 14.6193V9.16408L5.41016 6.43586V11.8911ZM5.41016 19.2718L10.5675 22V16.5339L5.41016 13.8165V19.2718Z" fill="white"/>
</svg>

<svg xmlns="http://www.w3.org/2000/svg" width="24" height="24" fill="none" viewBox="0 0 24 24">
    <path fill="#fff" d="M11.45 2 6.797 4.728l4.654 2.727 4.735-2.727zm.837 14.544V22l6.303-3.603v-5.455zM16.87 6.436v5.455l-4.584 2.728V9.164zM5.41 11.89l5.157 2.728V9.164L5.41 6.436zm0 7.38L10.567 22v-5.466L5.41 13.817z"/>
</svg>
